X:49
T:Beyogli
C:Indian
M:4/4
L:1/8
K:C
d3/2c/2BA ^GFED|d3/2c/2BA ^G/2A/2B/2G/2 A2|d3/2c/2BA ^G/2A/2F/2G/2 ED|
[1E/2^G/2F/2E/2 D^C D2D2:|[2E/2^G/2F/2E/2 D^C DEF^F
|:G2G2G/2_B/2A/2G/2 ^FG|A4A3/2F/2EF|^GAGA G/2B/2A/2G/2 F/2E/2D|
[1E/2^G/2F/2E/2 D/2E/2D/2^C/2 DEF^F:|[2E/2G/2F/2E/2 D/2E/2D/2^C/2 D2AB/2c/2|]
|:d2^cd d2d2|^cded/2c/2 d4|edd^c c_BBA|
[1^c_BBA Ae-ed/2c/2:|[2^c_B BA A2A z|]

